X: 1132
T: Couties Wedding  Strathspey
%R: strathspey
B: Niel Gow & Sons "A Collection of Strathspey Reels, etc." v.1 p.13 #2
Z: 2022 John Chambers <jc:trillian.mit.edu>
M: C
L: 1/8
K: Am	% and C
% - - - - - - - - - -
V: 1 staves=2
|:\
A/A/A Tc2 e/d/c/B/ Tc2 | A<Ac>d e>Ac<e | A/A/A Tc2 e/d/c/B/ Tc2 | G<GB>G d>GB<d :| cg-g>a g>ce2 | cg-g>a gce<g |
cg-g>a g<ce2 | G<GB>G d>GB<d || cg-g>a g>ce2 | cg-g>a gce<Tg | a>fg>e f>de>c | d>Bc>A d>GB<d |]
% - - - - - - - - - -
% Voice 2 preserves the staff layout in the book.
V: 2 clef=bass middle=d
|:\
a2a2 a2a2 | a2a2 A2A2 | a2a2 a2a2 | g2g2 g2g2 :| c2c2 c2c2 | c2c2 c2c2 |
c2c2 c2c2 | G2G2 G2G2 || c2c2 c2c2 | c2c2 c2c2 | f2e2 d2c2 | B2G2 g2G2 |]


